X: 10892
T: The WEARY PUND O' TOW
Q: "Very Slow"
%R: air, waltz
B: "Edinburgh Repository of Music" v.1 p.89 #2
F: http://digital.nls.uk/special-collections-of-printed-music/pageturner.cfm?id=87776133
Z: 2015 John Chambers <jc:trillian.mit.edu>
M: 3/4
L: 1/8
K: D
A |\
d>d d3 d | (3(def) e3d |\
c>d "_sf"g3 f | (fe) z3 a |\
d>d d3 d | (3(def) {f}e3 d |\
c>d e2 f2 | d4 z :|
g |\
~f>g a2 z>d | g>a b2 zd |\
c>d g3 f | (fe) z3(3(a/b/c'/) |\
d'>d' {d'}c'3 b | aa Hd'3 d |\
c>d e2 f2 | d4 z ||
g |\
~f>g a2 z>d | ~f>a b2 z>d |\
c>d "_sf"g3 f | fe z3(3(a/b/c'/) |\
d'>d' {d'}c'3 b | a{ba^g}a Hd'3 d |\
"_ad lib:"A>d f2 Te>>d | d4 z |]

%%sep 2 1 500
%%sep 1 1 500

